X:1
T:Green Fields of America (3)
M:3/4
L:1/8
K:D
 E2| G4 E3/2 D/2| E4 DE| A2 A3 E|D-C A,4| z4 A,2| =C2 D2 E2| D2 ^C2D-E|\
 C2 A,2G,-A,| A,6| z4 E2| G4 E3/2 D/2| E4D-E| A2 A3 E| D3/2- C/2 A,4|\
 z4 A,2| =C2 D2D-E| ^C2 D2E-C| A,2 A,2G,-A,| A,6| z4 E3/2- D/2| E2 A2A-B|\
 =c4 B3/2 A/2| A2 A2A-B| A3/2- G/2 E4| z4 E3/2- D/2| E2 A3 B| =c2B-A G2|\
E-DE-FG-A| A4- G2-| G2 z2 A3/2- B/2| A3/2- G/2 E2D-E| E2 E2D-E| A2 A3 E|\
D-C A,4| z4 A,A,| =C4 DD| D^C D2E-C| A,2 A,2G,-A,| A,6| z4||
